src/basic/400/u25A1-square.svg

<svg width="24" height="32" viewBox="0 0 24 32" fill="none" xmlns="http://www.w3.org/2000/svg">
<path fill-rule="evenodd" clip-rule="evenodd" d="M0,4h0.5h23h0.5v0.5v23v0.5h-0.5h-23h-0.5v-0.5v-23zM1,5v22h22v-22z" fill="black"/>
</svg>

<svg width="24" height="32" viewBox="0 0 24 32" fill="none" xmlns="http://www.w3.org/2000/svg">
<path fill-rule="evenodd" clip-rule="evenodd" d="M0 4H0.5H23.5H24V4.5V27.5V28H23.5H0.5H0V27.5V4.5V4ZM1 5V27H23V5H1Z" fill="black"/>
</svg>
